src/svg/black/cenz.svg

<svg xmlns="http://www.w3.org/2000/svg" width="32" height="32" viewBox="0 0 32 32"><path fill-rule="evenodd" d="M16,32 C7.163444,32 0,24.836556 0,16 C0,7.163444 7.163444,0 16,0 C24.836556,0 32,7.163444 32,16 C32,24.836556 24.836556,32 16,32 Z M12.9842133,10.6216953 C13.1480585,10.6412044 13.2660038,10.6499909 13.3820608,10.6699468 C14.4652112,10.8563259 15.5471269,11.0504491 16.6311487,11.2309457 C17.9950728,11.4580557 18.8994895,12.3360405 19.0299993,13.6650433 C19.0951451,14.3282789 19.0210662,15.0049177 19.0597034,15.6724721 C19.0713963,15.8744883 19.2054647,16.1534985 19.3643712,16.2385344 C19.5266186,16.3255063 19.8506051,16.2991467 19.9962937,16.1818686 C20.9371689,15.4242148 21.8550942,14.6356592 22.7624886,13.8357854 C22.8877692,13.7253578 22.966133,13.4994392 22.9757923,13.3217723 C23.006005,12.7650177 23.0020831,12.2056571 22.9949657,11.6474878 C22.969837,9.68116214 21.7057016,8.11857108 19.8137109,7.73315429 C18.7479909,7.51602227 17.6697065,7.36047056 16.6086345,7.12278694 C14.6979062,6.69492664 13.0908289,7.39189364 12.1002772,9.10966411 C12.018863,9.25091906 11.8577776,9.38651488 11.7062063,9.43580891 C10.2302196,9.91594173 9.0663087,11.3686265 9.03965481,12.9350151 C8.99687784,15.4404476 8.9854755,17.9474438 9.0214982,20.4528764 C9.04822472,22.3145824 10.2829464,23.8710676 11.9545886,24.2288589 C13.2533668,24.5067521 14.5566478,24.784422 15.8710407,24.9585148 C17.4744867,25.1709557 18.9704455,24.5736937 19.8433425,23.0233145 C19.9813326,22.778408 20.1456862,22.6405038 20.4037278,22.5531596 C21.8204514,22.0739203 22.9243729,20.5746967 22.9725241,19.0532833 C22.9993233,18.2105192 22.9813119,17.3663402 22.9934406,16.5229058 C22.9983065,16.1852939 22.9143505,15.917453 22.592688,15.7619757 C22.2892548,15.615434 22.0572135,15.7446261 21.8314905,15.9348027 C21.0004991,16.6351205 20.1581054,17.3220351 19.3465051,18.0451384 C19.1883248,18.1860955 19.0768433,18.4627973 19.0666756,18.6828334 C19.0323959,19.4255947 19.0570889,20.1711111 19.052005,20.9155851 C19.0487369,21.4018982 19.0324685,21.4112805 18.5473241,21.3572953 C18.4753513,21.3493278 18.4031606,21.3415838 18.3320594,21.3283295 C17.3101331,21.1385252 16.2898046,20.9385194 15.2661352,20.7592887 C13.8486129,20.5111059 12.9565426,19.4510608 12.9540733,17.9746226 C12.9503694,15.7287656 12.9524755,13.4829086 12.9542913,11.2370516 C12.9544365,11.0530553 12.9717215,10.8689845 12.9842133,10.6216953 Z M21.6269746,17.8776727 C21.8281498,19.3426437 21.3262286,20.5763348 20.3650906,20.9823777 C20.3650906,20.3221206 20.3631297,19.684649 20.3687946,19.0471773 C20.3693756,18.9942347 20.4110631,18.9281866 20.4530412,18.8914767 C20.8265589,18.5637682 21.2045794,18.2411231 21.6269746,17.8776727 Z M20.4693821,13.9808379 C20.3183192,13.3887882 20.2438045,12.7765594 20.0088581,12.2378992 C19.4029359,10.8485819 18.2940758,10.1199684 16.8412569,9.88377402 C15.78309,9.71176615 14.7318227,9.49515536 13.6003758,9.28405478 C14.0674362,8.75187282 14.5739329,8.4265471 15.1945256,8.40592104 C15.707486,8.38894364 16.2291615,8.46310808 16.7384179,8.54955879 C17.7379027,8.71903496 18.7364432,8.9017654 19.7261961,9.1223227 C20.8282293,9.36797377 21.6242148,10.3946598 21.6698241,11.557984 C21.6736733,11.6570934 21.6711315,11.756426 21.670841,11.8557587 C21.6673549,13.1222133 21.5404039,13.3426217 20.4693821,13.9808379 Z M11.6457811,10.9729339 L11.6457811,11.4992333 C11.6457811,13.730868 11.6438202,15.9624282 11.6465073,18.1940629 C11.6487588,20.1459429 13.117047,21.822908 15.0096187,22.1044499 C16.1155739,22.268937 17.2108527,22.5091524 18.376652,22.7276992 C18.0114138,23.2422336 17.5474036,23.4611527 17.0271079,23.5905682 C16.3911911,23.7485772 15.7809113,23.5669636 15.1650393,23.4474517 C14.1933704,23.2589876 13.2117519,23.1149031 12.2508318,22.8807192 C11.128681,22.6072936 10.3515784,21.5982552 10.3420643,20.4212299 C10.3224552,17.9913766 10.314902,15.561002 10.3490364,13.1314466 C10.3616734,12.2308253 10.7861022,11.5073497 11.6457811,10.9729339 Z"/></svg>

<svg xmlns="http://www.w3.org/2000/svg" width="32" height="32" viewBox="0 0 32 32"><path fill-rule="evenodd" d="M16 32C7.163 32 0 24.837 0 16S7.163 0 16 0s16 7.163 16 16-7.163 16-16 16zm-3.016-21.378c.164.02.282.028.398.048 1.083.186 2.165.38 3.25.56 1.363.228 2.267 1.106 2.398 2.435.065.663-.009 1.34.03 2.007.011.202.145.481.304.567.163.087.487.06.632-.057a81.439 81.439 0 0 0 2.766-2.346c.126-.11.204-.337.214-.514.03-.557.026-1.116.019-1.675-.025-1.966-1.29-3.528-3.181-3.914-1.066-.217-2.144-.373-3.205-.61-1.911-.428-3.518.269-4.509 1.987a.776.776 0 0 1-.394.326c-1.476.48-2.64 1.933-2.666 3.499a239.097 239.097 0 0 0-.019 7.518c.027 1.862 1.262 3.418 2.934 3.776 1.298.278 2.602.555 3.916.73 1.603.212 3.1-.385 3.972-1.936a.938.938 0 0 1 .56-.47c1.417-.48 2.521-1.978 2.57-3.5.026-.842.008-1.687.02-2.53.005-.338-.079-.606-.4-.761-.304-.147-.536-.017-.762.173-.83.7-1.673 1.387-2.484 2.11-.159.141-.27.418-.28.638-.035.743-.01 1.488-.015 2.233-.003.486-.02.495-.505.441-.072-.008-.144-.015-.215-.029-1.022-.19-2.042-.39-3.066-.569-1.417-.248-2.31-1.308-2.312-2.784-.004-2.246-.002-4.492 0-6.738 0-.184.018-.368.03-.615zm8.643 7.256c.201 1.465-.3 2.698-1.262 3.104 0-.66-.002-1.297.004-1.935 0-.053.042-.119.084-.156.374-.327.752-.65 1.174-1.013zm-1.158-3.897c-.15-.592-.225-1.204-.46-1.743-.606-1.39-1.715-2.118-3.168-2.354-1.058-.172-2.11-.389-3.24-.6.466-.532.973-.857 1.594-.878.512-.017 1.034.057 1.543.144 1 .169 1.998.352 2.988.572 1.102.246 1.898 1.273 1.944 2.436.004.1.001.198 0 .298-.003 1.266-.13 1.487-1.2 2.125zm-8.823-3.008v.526c0 2.232-.002 4.463 0 6.695.003 1.952 1.471 3.629 3.364 3.91 1.106.165 2.2.405 3.367.624-.366.514-.83.733-1.35.863-.636.158-1.246-.024-1.862-.144-.972-.188-1.953-.332-2.914-.566-1.122-.274-1.9-1.283-1.909-2.46-.02-2.43-.027-4.86.007-7.29.013-.9.437-1.624 1.297-2.158z"/></svg>
